img/Fit-out.svg

<svg width="48" height="48" fill="none" xmlns="http://www.w3.org/2000/svg"><g clip-path="url(#clip0)"><path d="M1.033 25.747C-2.602 12.625 3.686 0 14.705 0c6.097 0 8.7 3.504 15.397 11.663C36.8 19.822 46.35 8.478 48 25.747 46.614 41.66 29.348 56.064 21.332 42.774c-7.298-12.1-16.665-3.906-20.3-17.027h.001z" fill="#E6F1F9"/><path d="M15 13c-.6 0-1 .4-1 1v6c0 .6.4 1 1 1h15c.6 0 1-.4 1-1v-2h1v5h-8c-1.093 0-2 .907-2 2v2c-.6 0-1 .4-1 1v6c0 .6.4 1 1 1h2c.6 0 1-.4 1-1v-6c0-.6-.4-1-1-1v-2h8c1.093 0 2-.907 2-2v-5c0-1.093-.907-2-2-2h-1v-2c0-.6-.4-1-1-1H15zm1 2h13v4H16v-4z" fill="#036FC7"/></g><defs><clipPath id="clip0"><path fill="#fff" d="M0 0h48v48H0z"/></clipPath></defs></svg>

<svg width="48" height="48" viewBox="0 0 48 48" fill="none" xmlns="http://www.w3.org/2000/svg">
<g clip-path="url(#clip0)">
<path d="M1.033 25.747C-2.602 12.625 3.686 0 14.705 0C20.802 0 23.405 3.504 30.102 11.663C36.8 19.822 46.35 8.478 48 25.747C46.614 41.66 29.348 56.064 21.332 42.774C14.034 30.674 4.667 38.868 1.032 25.747H1.033Z" fill="#E6F1F9"/>
<path d="M15 13C14.4 13 14 13.4 14 14V20C14 20.6 14.4 21 15 21H30C30.6 21 31 20.6 31 20V18H32V23H24C22.907 23 22 23.907 22 25V27C21.4 27 21 27.4 21 28V34C21 34.6 21.4 35 22 35H24C24.6 35 25 34.6 25 34V28C25 27.4 24.6 27 24 27V25H32C33.093 25 34 24.093 34 23V18C34 16.907 33.093 16 32 16H31V14C31 13.4 30.6 13 30 13H15ZM16 15H29V19H16V15Z" fill="#036FC7"/>
</g>
<defs>
<clipPath id="clip0">
<rect width="48" height="48" fill="white"/>
</clipPath>
</defs>
</svg>
